X: 3
T: The Boys Of Malin
R: reel
M: 4/4
L: 1/8
K: Bmin
Bfdf Bfdf | Bfdf e2 dc | Bfdf Bfdf | ecAc ecdc :|
Bcde f2 df | g2 eg fedc | Bcde f2 df | ecAc ecdc |
Bcde f2 df | g2 eg fedc | Bcde f2 df | ecAc efga ||
bB B/B/B fBdf | b2 ba fefa | bB B/B/B fBdf | ecAc efga |
bB B/B/B fBdf | b2 ba fefa | bgaf gefd | ecAc e2 dc |]


Tune 11	Setting 23921

